X:1
T: The Marchioness of Townshend
C:Alexander Walker
R:Strathspey
Q: 128
K:Am
M:4/4
L:1/16
|:E2|EA3 c3A e3A c3A|BG3 D3G B,3G B,G,3|A,A3 c3A c3d ea3|g3e d3B AAA2 A2E2|
EA3 c3A e3A c3A|BG3 D3G B,3G B,G,3|A,A3 c3A c3d ea3|g3e d3B AAA2 A2E2|
AAA2 a3g aA3 a3e|gG3 g3e d3G B2c2|AAA2 a3g a3c' b3a|g3e d3B AAA2 A3E|
AAA2 a3g aA3 a3e|g3c' e3g dg3 B3G|A3E CA,3 c3d ea3|g3e d3B AAA2 A2:|
